dhis-2/dhis-support/dhis-support-system/src/main/resources/SVGs/rdt_result_pv_positive.svg

<?xml version="1.0" encoding="UTF-8" standalone="no"?>
<!-- Created with Inkscape (http://www.inkscape.org/) -->

<svg
   xmlns:dc="http://purl.org/dc/elements/1.1/"
   xmlns:cc="http://creativecommons.org/ns#"
   xmlns:rdf="http://www.w3.org/1999/02/22-rdf-syntax-ns#"
   xmlns:svg="http://www.w3.org/2000/svg"
   xmlns="http://www.w3.org/2000/svg"
   xmlns:sodipodi="http://sodipodi.sourceforge.net/DTD/sodipodi-0.dtd"
   xmlns:inkscape="http://www.inkscape.org/namespaces/inkscape"
   id="svg8"
   height="48"
   width="48"
   version="1.1"
   enable-background="new"
   viewBox="0 0 12.7 12.7"
   sodipodi:docname="rdt_result_pv_positive.svg"
   inkscape:version="0.92.2 (5c3e80d, 2017-08-06)">
  <defs
     id="defs9" />
  <sodipodi:namedview
     pagecolor="#ffffff"
     bordercolor="#666666"
     borderopacity="1"
     objecttolerance="10"
     gridtolerance="10"
     guidetolerance="10"
     inkscape:pageopacity="0"
     inkscape:pageshadow="2"
     inkscape:window-width="1920"
     inkscape:window-height="1017"
     id="namedview7"
     showgrid="false"
     inkscape:zoom="19.66666665"
     inkscape:cx="21.1296002"
     inkscape:cy="19.25446251"
     inkscape:window-x="1912"
     inkscape:window-y="-8"
     inkscape:window-maximized="1"
     inkscape:current-layer="svg8" />
  <title
     id="title4753">UIO-icon</title>
  <metadata
     id="metadata5">
    <rdf:RDF>
      <cc:Work
         rdf:about="">
        <dc:format>image/svg+xml</dc:format>
        <dc:type
           rdf:resource="http://purl.org/dc/dcmitype/StillImage" />
        <dc:title>UIO-icon</dc:title>
        <dc:creator>
          <cc:Agent>
            <dc:title>Joaquín Urbano</dc:title>
          </cc:Agent>
        </dc:creator>
        <dc:rights>
          <cc:Agent>
            <dc:title>GPL</dc:title>
          </cc:Agent>
        </dc:rights>
      </cc:Work>
    </rdf:RDF>
  </metadata>
  <path
     style="fill:#333333;stroke-width:0.9999874234"
     d="M 10.65039062 17.80273438 L 10.65039062 17.8046875 C 10.29396511 17.8046875 10.00582662 17.92187611 9.787109375 18.15820312 C 9.568392121 18.39294017 9.458984375 18.72313286 9.458984375 19.1484375 C 9.458984375 19.55047243 9.567598971 19.8671823 9.78515625 20.09960938 C 10.00271349 20.33115646 10.28123488 20.44726563 10.61914062 20.44726562 C 10.89224717 20.44726562 11.11591098 20.37900993 11.29296875 20.24414062 C 11.4711765 20.10847233 11.59940221 19.90193335 11.67578125 19.62304688 L 11.17773438 19.46484375 C 11.1349169 19.65184139 11.06321253 19.7880611 10.96484375 19.875 C 10.86647799 19.96173192 10.74982953 20.00585938 10.61328125 20.00585938 C 10.42812359 20.00585938 10.27782792 19.93843954 10.16210938 19.80078125 C 10.04638085 19.66392297 9.98828125 19.43228093 9.98828125 19.109375 C 9.98828125 18.80501883 10.04718197 18.58520704 10.1640625 18.44921875 C 10.282101 18.31355045 10.43441924 18.24609375 10.62304688 18.24609375 C 10.75960514 18.24609375 10.87581434 18.28457996 10.97070312 18.359375 C 11.0667529 18.43616302 11.13007662 18.54174978 11.16015625 18.67382812 L 11.66796875 18.55078125 C 11.61096947 18.34478385 11.52420166 18.18712363 11.40820312 18.078125 C 11.21420557 17.89312733 10.96238669 17.80273437 10.65039062 17.80273438 z M 26.56835938 17.8046875 C 26.43296109 17.8046875 26.31957765 17.82763467 26.23046875 17.87695312 C 26.14251884 17.92469551 26.08238768 17.9876741 26.04882812 18.06445312 C 26.01682838 18.14045217 26 18.25711133 26 18.41210938 L 26 18.55273438 L 25.72851562 18.55273438 L 25.72851562 18.9375 L 26 18.9375 L 26 20.40429688 L 26.48828125 20.40429688 L 26.48828125 18.9375 L 26.8515625 18.9375 L 26.8515625 18.55273438 L 26.48828125 18.55273438 L 26.48828125 18.421875 C 26.48828125 18.32758418 26.50308951 18.26464148 26.53320312 18.23242188 C 26.56447456 18.20059825 26.61495577 18.18164062 26.68554688 18.18164062 C 26.75729198 18.18164062 26.83261724 18.18910368 26.91015625 18.20898438 L 26.9765625 17.8671875 C 26.8434842 17.82501592 26.70722763 17.8046875 26.56835938 17.8046875 z M 16.00390625 17.84765625 L 16.00390625 20.40234375 L 16.51757812 20.40234375 L 16.51757812 19.43945312 L 16.85351562 19.43945312 C 17.0861127 19.43945312 17.26405029 19.42814456 17.38671875 19.40429688 C 17.47697961 19.38441732 17.56555484 19.34367436 17.65234375 19.28320312 C 17.74029366 19.22193388 17.81243135 19.13632554 17.86914062 19.02929688 C 17.92584692 18.92227823 17.953125 18.79152364 17.953125 18.63476562 C 17.953125 18.4314682 17.9050054 18.26666026 17.80664062 18.13867188 C 17.70827487 18.00976349 17.58526129 17.92450828 17.43945312 17.88671875 C 17.34456034 17.86283214 17.14058108 17.84765625 16.828125 17.84765625 L 16.00390625 17.84765625 z M 23.57226562 17.84765625 L 23.57226562 20.40234375 L 24.0859375 20.40234375 L 24.0859375 19.43945312 L 24.41992188 19.43945312 C 24.65251895 19.43945312 24.83045654 19.42814456 24.953125 19.40429688 C 25.04338586 19.38441732 25.13196109 19.34367436 25.21875 19.28320312 C 25.30669991 19.22193388 25.3788376 19.13632554 25.43554688 19.02929688 C 25.49225317 18.92227823 25.52148437 18.79152364 25.52148438 18.63476562 C 25.52148438 18.4314682 25.47141864 18.26666026 25.37304688 18.13867188 C 25.27468112 18.00976349 25.15362066 17.92450828 25.0078125 17.88671875 C 24.91291971 17.86283214 24.70894045 17.84765625 24.39648438 17.84765625 L 23.57226562 17.84765625 z M 16.51757812 18.27929688 L 16.76757812 18.27929688 C 16.95273578 18.27929688 17.07538953 18.28887649 17.13671875 18.30078125 C 17.22003772 18.31669306 17.28936067 18.35359225 17.34375 18.4140625 C 17.39814133 18.47413775 17.42382813 18.54947929 17.42382812 18.64257812 C 17.42382812 18.71817117 17.40455885 18.78449757 17.36523438 18.84179688 C 17.32703987 18.89868916 17.27336126 18.94169935 17.20507812 18.96875 C 17.13679797 18.99660474 17.00133557 19.0078125 16.79882812 19.0078125 L 16.51757812 19.0078125 L 16.51757812 18.27929688 z M 24.0859375 18.27929688 L 24.33398438 18.27929688 C 24.51914203 18.27929688 24.64179578 18.28887649 24.703125 18.30078125 C 24.78644397 18.31669306 24.85576692 18.35359225 24.91015625 18.4140625 C 24.96454758 18.47413775 24.9921875 18.54947929 24.9921875 18.64257812 C 24.9921875 18.71817117 24.97096521 18.78449757 24.93164062 18.84179688 C 24.89344612 18.89868916 24.84171066 18.94169935 24.7734375 18.96875 C 24.70516136 18.99660474 24.56970496 19.0078125 24.3671875 19.0078125 L 24.0859375 19.0078125 L 24.0859375 18.27929688 z M 18.13867188 18.55273438 L 18.8828125 20.40234375 L 19.32226562 20.40234375 L 20.0546875 18.55273438 L 19.55273438 18.55273438 L 19.20117188 19.49609375 C 19.18263216 19.54821309 19.16659928 19.60138753 19.15039062 19.65429688 C 19.14346766 19.67818349 19.12622194 19.73253699 19.09960938 19.8125 L 18.99804688 19.49609375 L 18.65234375 18.55273438 L 18.13867188 18.55273438 z M 8.2421875 21.640625 C 5.891817111 21.640625 4 23.53184212 4 25.8828125 L 4 25.953125 C 4 28.30349539 5.891817111 30.19726563 8.2421875 30.19726562 L 39.7578125 30.19726562 C 42.10778289 30.19726562 44 28.30409538 44 25.953125 L 44 25.8828125 C 44 23.53184212 42.10778289 21.640625 39.7578125 21.640625 L 8.2421875 21.640625 z M 39.78125 23.75390625 C 40.96993504 23.75390637 41.93359375 24.71760497 41.93359375 25.90625 C 41.93359364 27.09493502 40.96989501 28.05859375 39.78125 28.05859375 C 38.59256496 28.05859363 37.62890625 27.09489503 37.62890625 25.90625 C 37.62890637 24.71756498 38.59260499 23.75390625 39.78125 23.75390625 z M 8.548828125 24.02539062 L 10.30664062 24.02539062 L 10.30664062 27.6171875 L 8.548828125 27.6171875 C 7.554140657 27.6171875 6.751953125 26.81501997 6.751953125 25.8203125 C 6.751953125 24.82562503 7.554120655 24.02539063 8.548828125 24.02539062 z M 10.8203125 24.02539062 L 17.98242188 24.02539062 L 17.98242188 27.6171875 L 10.8203125 27.6171875 L 10.8203125 24.02539062 z M 18.49609375 24.02539062 L 28.5625 24.02539062 C 29.55718747 24.02539062 30.359375 24.82564503 30.359375 25.8203125 C 30.359375 26.81499997 29.55720747 27.6171875 28.5625 27.6171875 L 18.49609375 27.6171875 L 18.49609375 24.02539062 z M 34.0625 24.54296875 C 34.81997046 24.54237447 35.43419374 25.15658204 35.43359375 25.9140625 C 35.43310866 26.67077297 34.81921047 27.28380312 34.0625 27.28320312 C 33.30655952 27.28271844 32.69375937 26.66996298 32.69335938 25.9140625 C 32.69276577 25.15735204 33.30582953 24.54346874 34.0625 24.54296875 z "
     transform="scale(0.2645833333)"
     id="text9299" />
</svg>

<?xml version="1.0" encoding="UTF-8" standalone="no"?>
<!-- Created with Inkscape (http://www.inkscape.org/) -->
<svg id="svg8" xmlns:rdf="http://www.w3.org/1999/02/22-rdf-syntax-ns#" xmlns="http://www.w3.org/2000/svg" xmlns:osb="http://www.openswatchbook.org/uri/2009/osb" height="48" width="48" version="1.1" enable-background="new" xmlns:cc="http://creativecommons.org/ns#" viewBox="0 0 12.7 12.7" xmlns:dc="http://purl.org/dc/elements/1.1/">
 <title id="title4753">UIO-icon</title>
 <metadata id="metadata5">
  <rdf:RDF>
   <cc:Work rdf:about="">
    <dc:format>image/svg+xml</dc:format>
    <dc:type rdf:resource="http://purl.org/dc/dcmitype/StillImage"/>
    <dc:title>UIO-icon</dc:title>
    <dc:creator>
     <cc:Agent>
      <dc:title>Joaquín Urbano</dc:title>
     </cc:Agent>
    </dc:creator>
    <dc:rights>
     <cc:Agent>
      <dc:title>GPL</dc:title>
     </cc:Agent>
    </dc:rights>
   </cc:Work>
  </rdf:RDF>
 </metadata>
 <g id="layer1" transform="translate(0,-284.3)" fill="#333">
  <path id="text9299" d="m10.65 17.803v0.001953c-0.35643 0-0.64456 0.11719-0.86328 0.35352-0.21872 0.23474-0.32812 0.56492-0.32812 0.99023 0 0.40204 0.10861 0.71874 0.32617 0.95117 0.21756 0.23155 0.49607 0.34766 0.83398 0.34766 0.27311 0 0.49677-0.068249 0.67383-0.20312 0.17821-0.13567 0.30643-0.3422 0.38281-0.62109l-0.49805-0.1582c-0.042818 0.187-0.11452 0.32322-0.21289 0.41016-0.098367 0.086733-0.21501 0.13086-0.35156 0.13086-0.18516 0-0.33545-0.06742-0.45117-0.20508-0.11573-0.13686-0.17383-0.3685-0.17383-0.69141 0-0.30436 0.058898-0.52417 0.17578-0.66016 0.11804-0.13567 0.27035-0.20312 0.45898-0.20312 0.13656 0 0.25277 0.038484 0.34766 0.11328 0.096051 0.076789 0.15937 0.18237 0.18945 0.31445l0.50781-0.12305c-0.057-0.206-0.143-0.363-0.259-0.472-0.194-0.185-0.446-0.277-0.758-0.277zm15.918 0.001953c-0.1354 0-0.24878 0.022947-0.33789 0.072266-0.087951 0.047743-0.14808 0.11072-0.18164 0.1875-0.032 0.076-0.048 0.192-0.048 0.347v0.14062h-0.271v0.385h0.271v1.4668h0.48828v-1.467h0.364v-0.385h-0.364v-0.131c0-0.094292 0.014808-0.15723 0.044922-0.18945 0.031272-0.031824 0.081748-0.050781 0.15234-0.050781 0.071746 0 0.14707 0.007463 0.22461 0.027344l0.066406-0.3418c-0.13308-0.042172-0.26933-0.0625-0.4082-0.0625zm-10.564 0.042969v2.5547h0.51367v-0.96289h0.33594c0.2326 0 0.41053-0.011308 0.5332-0.035156 0.090262-0.01988 0.17883-0.060618 0.26562-0.12109 0.087951-0.06127 0.16009-0.14688 0.2168-0.25391 0.056707-0.10702 0.083984-0.23777 0.083984-0.39453 0-0.2033-0.048114-0.3681-0.14648-0.49609-0.098367-0.12891-0.22138-0.21416-0.36719-0.25195-0.094894-0.023887-0.29887-0.039062-0.61133-0.039062zm7.5684 0v2.5547h0.51367v-0.96289h0.33398c0.2326 0 0.41053-0.011308 0.5332-0.035156 0.090262-0.01988 0.17883-0.060618 0.26562-0.12109 0.087951-0.06127 0.16009-0.14688 0.2168-0.25391 0.056707-0.10702 0.085938-0.23777 0.085938-0.39453 0-0.2033-0.050067-0.3681-0.14844-0.49609-0.098367-0.12891-0.21942-0.21416-0.36523-0.25195-0.094894-0.023887-0.29887-0.039062-0.61133-0.039062zm-7.0547 0.43164h0.25c0.18516 0 0.30781 0.009579 0.36914 0.021484 0.08332 0.015912 0.15264 0.052809 0.20703 0.11328 0.054392 0.060076 0.080078 0.13542 0.080078 0.22852 0 0.075594-0.019269 0.14192-0.058594 0.19922-0.038195 0.056893-0.091876 0.099899-0.16016 0.12695-0.068281 0.027855-0.20374 0.039062-0.40625 0.039062h-0.28125zm7.5684 0h0.24805c0.18516 0 0.30781 0.009579 0.36914 0.021484 0.08332 0.015912 0.15264 0.052809 0.20703 0.11328 0.054392 0.060076 0.082031 0.13542 0.082031 0.22852 0 0.075594-0.021222 0.14192-0.060547 0.19922-0.038195 0.056893-0.089926 0.099899-0.1582 0.12695-0.068277 0.027855-0.20373 0.039062-0.40625 0.039062h-0.28125zm-5.9473 0.27344 0.74414 1.8496h0.43945l0.73242-1.8496h-0.50195l-0.35156 0.94336c-0.01854 0.05212-0.034572 0.10529-0.050781 0.1582-0.006923 0.023887-0.024168 0.078236-0.050781 0.1582l-0.10156-0.31641-0.3457-0.94336zm-9.8958 3.088c-2.3504 0-4.2422 1.891-4.2422 4.242v0.070312c0 2.3504 1.8918 4.2441 4.2422 4.2441h31.516c2.35 0 4.242-1.893 4.242-4.244v-0.07c0-2.351-1.892-4.242-4.242-4.242zm31.539 2.113c1.1887 1.2e-7 2.1523 0.96364 2.1523 2.1523-1.2e-7 1.1887-0.96364 2.1523-2.1523 2.1523-1.1887-1.2e-7 -2.1523-0.96364-2.1523-2.1523 1.2e-7 -1.1887 0.96364-2.1523 2.1523-2.1523zm-31.234 0.271h9.4355v3.592h-9.4351c-0.9947 0-1.7969-0.80218-1.7969-1.7969 0-0.9947 0.80218-1.7949 1.7969-1.7949zm9.9492 0h10.066c0.9947 0 1.7969 0.80022 1.7969 1.7949 0 0.9947-0.80218 1.7969-1.7969 1.7969h-10.066zm15.566 0.518c0.75748-0.00059429 1.3717 0.61361 1.3711 1.3711-0.0004851 0.75672-0.61438 1.3697-1.3711 1.3691-0.75595-0.00048469-1.3687-0.61319-1.3691-1.3691-0.00059361-0.75672 0.61242-1.3706 1.3691-1.3711z" transform="matrix(.26458 0 0 .26458 0 284.3)"/>
 </g>
</svg>
